X:1
T:Title
%%score { ( 1 3 ) | ( 2 4 ) }
L:1/8
M:4/4
K:G
V:1 treble nm="Grand Piano"
V:3 treble 
V:2 bass 
V:4 bass 
V:1
 z4 z2[Q:1/4=100] GA | BDGA Bd[GB][FA] | [EG]2 [EG]2 [G,CE]2 [CEG][G,CE] | %3
 [G,B,D]4 [B,DG]2 [B,DG][DGB] | [FA]4 [FA]2 GA | BDGA Bd[GB][FA] | [EG]2 [EG]2 [G,CE]2 [G,EG][CE] | %7
 [G,B,D]2 [B,DG]2 [DGB]2 [CFA]2 |[M:3/4] [CFA]4 [B,G]2 |[M:1/4] z z/ F/ |[M:4/4] G4 B2 z2 | %11
 G4 E2 z2 | c2 B2 d3 B |[M:3/4] [DFA]6 |[M:1/4] z z/ A/ |[M:4/4] B4 d2 z2 | G4 [CE]2 z2 | %17
 B2 D2 [CFA]3 [B,DG] |[M:3/4] [B,DG]6 |] %19
V:2
 z4 z2 [G,B,][G,C] | [G,D][G,B,][G,B,D][K:treble][G,CD] [G,DG][G,B,G][K:bass][G,,G,][B,,G,] | %2
 [C,C]2 [C,C]2 C,2 C,C, | G,,4 G,,2 G,,G,, | [D,D]4 [D,D]2[K:treble] [G,B,D][G,CD] | %5
 [G,DG][G,B,][G,B,D][G,CD] [G,DG][G,B,G][K:bass][G,,G,][B,,G,] | [C,C]2 [C,C]2 C,2 C,G, | %7
 D,2 D,2 D,2 D,2 |[M:3/4] D,4 G,,2 |[M:1/4] E>E |[M:4/4] E4 E2 z2 | E4 z4[K:treble] | %12
 [A,DF]2 [G,DG]2 [B,DG]3 [G,DG] |[M:3/4] D,6 |[M:1/4] G>G |[M:4/4] G4 G2 z2[K:bass] | E4 z4 | %17
 [D,G,D]2 [D,B,]2 D,3 G,, |[M:3/4] G,,6 |] %19
V:3
 x8 | x8 | x8 | x8 | x8 | x8 | x8 | x8 |[M:3/4] x6 |[M:1/4] x2 |[M:4/4] z2 B,B, z G, B>A | %11
 z2 B,B, z G, B>B | x8 |[M:3/4] x6 |[M:1/4] x2 |[M:4/4] z2 DD z B, G>G | z2 G,G, G,G, G>A | x8 | %18
[M:3/4] x6 |] %19
V:4
 x8 | x3[K:treble] x3[K:bass] x2 | x8 | x8 | x6[K:treble] x2 | x6[K:bass] x2 | x8 | x8 | %8
[M:3/4] x6 |[M:1/4] x2 |[M:4/4] z2 E,E, [E,G,]E, ^D>D | z2 E,E, [E,G,]E,[K:treble] [G,D]>[G,B,D] | %12
 x8 |[M:3/4] x6 |[M:1/4] x2 |[M:4/4] z2 G,G, [G,B,]G, z z/[K:bass] E/ | z2 C,C, C,C, E>^D | x8 | %18
[M:3/4] x6 |] %19

